papirus/32x32/apps/doublecmd.svg

<svg height="32" width="32" xmlns="http://www.w3.org/2000/svg"><rect fill="#d95951" height="28" rx="1.4" transform="matrix(0 -1 -1 0 0 0)" width="28" x="-30" y="-30"/><path d="m4 7v4h4.896764c.452245 0 1.103236.547755 1.103236 1v10c0 .452246-.6517589 1.026343-1.103236 1h-4.896764v4h8.571429c.791428 0 1.428571-.637143 1.428571-1.428571v-17.1428576c0-.7914285-.637143-1.4285714-1.428571-1.4285714z" opacity=".2"/><path d="m4 6v4h4.896764c.452245 0 1.103236.547755 1.103236 1v10c0 .452246-.6517589 1.026343-1.103236 1h-4.896764v4h8.571429c.791428 0 1.428571-.637143 1.428571-1.428571v-17.1428576c0-.7914285-.637143-1.4285714-1.428571-1.4285714z" fill="#fff"/><path d="m28 7v4h-4.896764c-.452245 0-1.103236.547755-1.103236 1v10c0 .452246.651759 1.026343 1.103236 1h4.896764v4h-8.571429c-.791428 0-1.428571-.637143-1.428571-1.428571v-17.1428576c0-.7914285.637143-1.4285714 1.428571-1.4285714z" opacity=".2"/><path d="m28 6v4h-4.896764c-.452245 0-1.103236.547755-1.103236 1v10c0 .452246.651759 1.026343 1.103236 1h4.896764v4h-8.571429c-.791428 0-1.428571-.637143-1.428571-1.428571v-17.1428576c0-.7914285.637143-1.4285714 1.428571-1.4285714z" fill="#fff"/><path d="m3.4003906 2c-.7756 0-1.4003906.6247906-1.4003906 1.4003906v1c0-.7756.6247906-1.4003906 1.4003906-1.4003906h25.1992184c.7756 0 1.400391.6247906 1.400391 1.4003906v-1c0-.7756-.624791-1.4003906-1.400391-1.4003906z" fill="#fff" opacity=".2"/><path d="m2 27.599609v1c0 .7756.6247906 1.400391 1.4003906 1.400391h25.1992184c.7756 0 1.400391-.624791 1.400391-1.400391v-1c0 .7756-.624791 1.400391-1.400391 1.400391h-25.1992184c-.7756 0-1.4003906-.624791-1.4003906-1.400391z" opacity=".3"/></svg>

<?xml version="1.0" encoding="UTF-8" standalone="no"?>
<!-- Created with Inkscape (http://www.inkscape.org/) -->

<svg
   xmlns:dc="http://purl.org/dc/elements/1.1/"
   xmlns:cc="http://creativecommons.org/ns#"
   xmlns:rdf="http://www.w3.org/1999/02/22-rdf-syntax-ns#"
   xmlns:svg="http://www.w3.org/2000/svg"
   xmlns="http://www.w3.org/2000/svg"
   xmlns:sodipodi="http://sodipodi.sourceforge.net/DTD/sodipodi-0.dtd"
   xmlns:inkscape="http://www.inkscape.org/namespaces/inkscape"
   id="svg2817"
   height="32"
   width="32"
   version="1.0"
   inkscape:version="0.91 r13725"
   sodipodi:docname="doublecmd.svg">
  <sodipodi:namedview
     pagecolor="#ffffff"
     bordercolor="#666666"
     borderopacity="1"
     objecttolerance="10"
     gridtolerance="10"
     guidetolerance="10"
     inkscape:pageopacity="0"
     inkscape:pageshadow="2"
     inkscape:window-width="1600"
     inkscape:window-height="849"
     id="namedview14"
     showgrid="false"
     inkscape:zoom="17.31"
     inkscape:cx="12.808485"
     inkscape:cy="14.305466"
     inkscape:window-x="0"
     inkscape:window-y="0"
     inkscape:window-maximized="1"
     inkscape:current-layer="svg2817" />
  <metadata
     id="metadata57">
    <rdf:RDF>
      <cc:Work
         rdf:about="">
        <dc:format>image/svg+xml</dc:format>
        <dc:type
           rdf:resource="http://purl.org/dc/dcmitype/StillImage" />
        <dc:title></dc:title>
      </cc:Work>
    </rdf:RDF>
  </metadata>
  <defs
     id="defs2819" />
  <rect
     style="fill:#d95951"
     id="rect4203-6"
     ry="1.4"
     rx="1.4"
     transform="matrix(0,-1,-1,0,0,0)"
     height="28"
     width="28"
     y="-30"
     x="-30" />
  <path
     sodipodi:nodetypes="ccssssccssssc"
     inkscape:connector-curvature="0"
     id="path4308"
     d="m 4,7 0,4 4.896764,0 C 9.349009,11 10,11.547755 10,12 l 0,10 c 0,0.452246 -0.6517589,1.026343 -1.103236,1 L 4,23 l 0,4 8.571429,0 C 13.362857,27 14,26.362857 14,25.571429 L 14,8.4285714 C 14,7.6371429 13.362857,7 12.571429,7 Z"
     style="opacity:0.2;fill:#000000;fill-opacity:1;stroke:none;stroke-width:4;stroke-linecap:round;stroke-linejoin:round;stroke-miterlimit:4;stroke-dasharray:none;stroke-opacity:1" />
  <path
     style="opacity:1;fill:#ffffff;fill-opacity:1;stroke:none;stroke-width:4;stroke-linecap:round;stroke-linejoin:round;stroke-miterlimit:4;stroke-dasharray:none;stroke-opacity:1"
     d="m 4,6 0,4 4.896764,0 C 9.349009,10 10,10.547755 10,11 l 0,10 c 0,0.452246 -0.6517589,1.026343 -1.103236,1 L 4,22 l 0,4 8.571429,0 C 13.362857,26 14,25.362857 14,24.571429 L 14,7.4285714 C 14,6.6371429 13.362857,6 12.571429,6 Z"
     id="rect4174"
     inkscape:connector-curvature="0"
     sodipodi:nodetypes="ccssssccssssc" />
  <path
     style="opacity:0.2;fill:#000000;fill-opacity:1;stroke:none;stroke-width:4;stroke-linecap:round;stroke-linejoin:round;stroke-miterlimit:4;stroke-dasharray:none;stroke-opacity:1"
     d="m 28,7 0,4 -4.896764,0 C 22.650991,11 22,11.547755 22,12 l 0,10 c 0,0.452246 0.651759,1.026343 1.103236,1 L 28,23 l 0,4 -8.571429,0 C 18.637143,27 18,26.362857 18,25.571429 L 18,8.4285714 C 18,7.6371429 18.637143,7 19.428571,7 Z"
     id="path4310"
     inkscape:connector-curvature="0"
     sodipodi:nodetypes="ccssssccssssc" />
  <path
     sodipodi:nodetypes="ccssssccssssc"
     inkscape:connector-curvature="0"
     id="path4306"
     d="m 28,6 0,4 -4.896764,0 C 22.650991,10 22,10.547755 22,11 l 0,10 c 0,0.452246 0.651759,1.026343 1.103236,1 L 28,22 l 0,4 -8.571429,0 C 18.637143,26 18,25.362857 18,24.571429 L 18,7.4285714 C 18,6.6371429 18.637143,6 19.428571,6 Z"
     style="opacity:1;fill:#ffffff;fill-opacity:1;stroke:none;stroke-width:4;stroke-linecap:round;stroke-linejoin:round;stroke-miterlimit:4;stroke-dasharray:none;stroke-opacity:1" />
  <path
     style="fill:#ffffff;fill-opacity:1;opacity:0.2"
     d="M 3.4003906 2 C 2.6247906 2 2 2.6247906 2 3.4003906 L 2 4.4003906 C 2 3.6247906 2.6247906 3 3.4003906 3 L 28.599609 3 C 29.375209 3 30 3.6247906 30 4.4003906 L 30 3.4003906 C 30 2.6247906 29.375209 2 28.599609 2 L 3.4003906 2 z "
     id="rect4312" />
  <path
     style="fill:#000000;fill-opacity:1;opacity:0.3"
     d="M 2 27.599609 L 2 28.599609 C 2 29.375209 2.6247906 30 3.4003906 30 L 28.599609 30 C 29.375209 30 30 29.375209 30 28.599609 L 30 27.599609 C 30 28.375209 29.375209 29 28.599609 29 L 3.4003906 29 C 2.6247906 29 2 28.375209 2 27.599609 z "
     id="rect4317" />
</svg>
